src/assets/images/free-demat-compaign/upload-signature-to-complete-demat-account-opening-process.svg

<svg width="99" height="80" viewBox="0 0 99 80" fill="none" xmlns="http://www.w3.org/2000/svg">
<path d="M94.3244 22.9298C94.64 22.9298 94.9556 22.9298 95.285 22.9298C98.7155 22.9572 98.8527 23.2317 98.839 26.7034C98.8116 41.4135 98.7978 56.1099 98.9076 70.82C98.9488 76.4872 95.6006 80.0138 89.9608 80.0001C70.1049 79.9589 32.4102 79.9727 12.568 79.9727C11.2369 79.9727 9.9059 80.0001 8.58857 79.9178C4.7601 79.6845 1.7824 76.9538 1.26096 73.1665C1.08257 71.8629 1.00024 70.5181 1.00024 69.2008C0.986517 55.1356 1.00024 41.0567 1.00024 26.9915C1.00024 23.0807 1.15118 22.9161 5.1306 22.9023C17.1237 22.9023 82.5371 22.9023 94.3244 22.9023V22.9298ZM20.1426 70.2848C20.2524 70.5456 20.3896 71.5198 20.8699 71.7668C21.3639 72.0138 22.3107 71.7119 22.9008 71.3689C26.4273 69.2557 29.1718 66.3466 31.2301 62.7926C35.2369 55.8766 39.2438 48.9469 43.2507 42.0173C44.5405 39.7668 45.9128 37.5576 47.0517 35.2385C47.9848 33.3174 47.1203 30.971 45.3502 29.8046C43.6349 28.6794 41.261 28.8577 39.8064 30.3809C38.9694 31.2454 38.2833 32.2883 37.6795 33.3312C32.9042 41.7017 28.2112 50.127 23.381 58.4701C21.3227 62.0104 20.4994 65.8389 20.1563 70.2986L20.1426 70.2848ZM40.2318 68.6382C40.5886 69.2008 40.8218 69.6125 41.0963 69.983C42.0294 71.2591 43.2095 72.0001 44.8562 71.9178C46.9831 71.808 48.0671 70.5181 48.6983 68.6794C49.1923 67.266 49.6452 65.8389 50.2764 63.9452C50.9351 64.796 51.333 65.2351 51.6486 65.7291C52.4033 66.9366 53.0071 68.254 53.8579 69.3929C55.9162 72.1236 60.5405 72.4255 62.9419 70.0653C63.8064 69.2145 63.9985 68.2402 63.3124 67.1974C62.64 66.1545 61.7481 66.3054 60.8013 66.7994C60.4308 66.9915 60.0328 67.1425 59.6349 67.3071C58.4273 67.8286 57.4531 67.5679 56.767 66.4427C56.1769 65.4409 55.6143 64.4118 55.0929 63.3826C54.0225 61.2694 52.3759 60.1854 49.9608 60.4461C47.6829 60.6931 46.5714 62.2162 45.9265 64.2059C45.556 65.3312 45.1992 66.4701 44.7738 67.8149C44.4033 67.362 44.1838 67.1425 44.0328 66.8818C42.3038 64.0824 39.4085 63.6708 37.1306 65.9761C36.3073 66.7994 35.6074 67.7463 34.8664 68.6519C34.098 69.585 34.1529 70.5181 35.0037 71.3415C35.9505 72.2471 36.9385 72.0962 37.8167 71.2454C38.5989 70.477 39.3124 69.6262 40.2044 68.6382H40.2318Z" fill="url(#paint0_linear_258_513)"/>
<path d="M5.36449 19.0189C1.22041 19.0189 1.0283 18.8816 1.01458 14.7787C1.01458 12.2401 0.987135 9.6741 1.23413 7.14923C1.61835 3.37564 4.43139 0.658662 8.16381 0.178388C9.05575 0.0686106 9.96141 0 10.8671 0C30.819 0 50.7847 0 70.7367 0.0411664C72.5069 0.0411664 92.2256 0.219554 93.8722 0.795883C97.0969 1.94854 98.8259 4.78902 98.8259 8.21955C98.8259 10.813 98.8808 13.4202 98.9082 16.0137C98.9357 18.47 98.428 19.0326 95.958 19.0326C83.6492 19.0326 17.289 19.0051 5.35077 19.0051L5.36449 19.0189ZM78.7367 7.57461C78.7367 7.57461 78.7367 7.56089 78.7367 7.54717C75.1827 7.54717 71.6286 7.54717 68.0746 7.54717C66.8396 7.54717 66.0163 7.90394 65.9889 9.31732C65.9751 10.6895 66.5789 11.4031 67.9786 11.4031C75.0866 11.4031 82.1947 11.4168 89.289 11.3619C90.8534 11.3619 91.5943 10.5249 91.4708 9.23499C91.3336 7.89022 90.4417 7.54717 89.2204 7.56089C85.7213 7.58834 82.2221 7.56089 78.723 7.56089L78.7367 7.57461ZM20.747 7.54717C19.512 7.54717 18.6887 7.90394 18.6612 9.31732C18.6475 10.6895 19.2513 11.4031 20.6509 11.4031C27.759 11.4031 15.6561 11.4168 22.7504 11.3619C24.3148 11.3619 25.0557 10.5249 24.9322 9.23499C24.795 7.89022 23.9031 7.54717 22.6818 7.56089C19.1827 7.58834 24.2873 7.56089 20.7333 7.53345L20.747 7.54717ZM10.5926 7.54717C9.35763 7.54717 8.53431 7.90394 8.50686 9.31732C8.49314 10.6895 9.09691 11.4031 10.4966 11.4031C17.6046 11.4031 5.50171 11.4168 12.5961 11.3619C14.1604 11.3619 14.9014 10.5249 14.7779 9.23499C14.6407 7.89022 13.7487 7.54717 12.5274 7.56089C9.0283 7.58834 14.1329 7.56089 10.5789 7.53345L10.5926 7.54717Z" fill="url(#paint1_linear_258_513)"/>
<defs>
<linearGradient id="paint0_linear_258_513" x1="49.9511" y1="22.9023" x2="49.9511" y2="80.0002" gradientUnits="userSpaceOnUse">
<stop stop-color="#8EF8AA"/>
<stop offset="1" stop-color="#00EFD1"/>
</linearGradient>
<linearGradient id="paint1_linear_258_513" x1="49.9615" y1="0" x2="49.9615" y2="19.0326" gradientUnits="userSpaceOnUse">
<stop stop-color="#8EF8AA"/>
<stop offset="1" stop-color="#00EFD1"/>
</linearGradient>
</defs>
</svg>

<svg width="99" height="80" fill="none" xmlns="http://www.w3.org/2000/svg"><path d="M94.324 22.93h.961c3.43.027 3.568.302 3.554 3.773-.027 14.71-.041 29.407.069 44.117.04 5.667-3.307 9.194-8.947 9.18-19.856-.041-57.55-.027-77.393-.027-1.331 0-2.662.027-3.98-.055-3.828-.234-6.806-2.964-7.327-6.752a29.462 29.462 0 0 1-.26-3.965C.986 55.136 1 41.057 1 26.99c0-3.91.15-4.075 4.13-4.089h89.193v.028zM20.143 70.285c.11.26.247 1.235.727 1.482.494.247 1.44-.055 2.03-.398 3.527-2.113 6.272-5.022 8.33-8.576 4.007-6.916 8.014-13.846 12.02-20.776 1.29-2.25 2.663-4.46 3.802-6.779.933-1.92.068-4.267-1.702-5.433-1.715-1.126-4.089-.947-5.544.576-.837.864-1.523 1.907-2.127 2.95-4.775 8.37-9.468 16.796-14.298 25.14-2.058 3.54-2.882 7.368-3.225 11.828l-.013-.014zm20.089-1.647c.357.563.59.974.864 1.345.933 1.276 2.114 2.017 3.76 1.935 2.127-.11 3.211-1.4 3.842-3.239.494-1.413.947-2.84 1.578-4.734.66.851 1.057 1.29 1.373 1.784.754 1.208 1.358 2.525 2.209 3.664 2.058 2.73 6.683 3.032 9.084.672.864-.85 1.056-1.825.37-2.868-.672-1.043-1.564-.892-2.51-.398-.371.192-.77.343-1.167.508-1.208.522-2.182.26-2.868-.864a55.251 55.251 0 0 1-1.674-3.06c-1.07-2.114-2.717-3.198-5.132-2.937-2.278.247-3.39 1.77-4.035 3.76-.37 1.125-.727 2.264-1.152 3.609-.37-.453-.59-.672-.741-.933-1.73-2.8-4.625-3.211-6.902-.906-.824.823-1.524 1.77-2.265 2.676-.768.933-.713 1.866.138 2.69.947.905 1.934.754 2.813-.097.782-.768 1.495-1.619 2.387-2.607h.028z" fill="url(#a)"/><path d="M5.364 19.019c-4.144 0-4.336-.137-4.35-4.24 0-2.539-.027-5.105.22-7.63C1.618 3.376 4.431.66 8.164.18 9.056.068 9.96 0 10.867 0c19.952 0 39.918 0 59.87.041 1.77 0 21.489.179 23.135.755 3.225 1.153 4.954 3.993 4.954 7.424 0 2.593.055 5.2.082 7.794.028 2.456-.48 3.019-2.95 3.019-12.309 0-78.669-.028-90.607-.028l.013.014zM78.737 7.575v-.028H68.075c-1.235 0-2.059.357-2.086 1.77-.014 1.373.59 2.086 1.99 2.086 7.108 0 14.216.014 21.31-.041 1.564 0 2.305-.837 2.182-2.127-.137-1.345-1.03-1.688-2.25-1.674-3.5.027-6.999 0-10.498 0l.014.014zm-57.99-.028c-1.235 0-2.058.357-2.086 1.77-.014 1.373.59 2.086 1.99 2.086 7.108 0-4.995.014 2.1-.041 1.564 0 2.305-.837 2.181-2.127-.137-1.345-1.029-1.688-2.25-1.674-3.5.027 1.605 0-1.949-.028l.014.014zm-10.154 0c-1.235 0-2.059.357-2.086 1.77-.014 1.373.59 2.086 1.99 2.086 7.108 0-4.995.014 2.1-.041 1.563 0 2.304-.837 2.18-2.127-.136-1.345-1.028-1.688-2.25-1.674-3.499.027 1.606 0-1.948-.028l.014.014z" fill="url(#b)"/><defs><linearGradient id="a" x1="49.951" y1="22.902" x2="49.951" y2="80" gradientUnits="userSpaceOnUse"><stop stop-color="#8EF8AA"/><stop offset="1" stop-color="#00EFD1"/></linearGradient><linearGradient id="b" x1="49.962" y1="0" x2="49.962" y2="19.033" gradientUnits="userSpaceOnUse"><stop stop-color="#8EF8AA"/><stop offset="1" stop-color="#00EFD1"/></linearGradient></defs></svg>
